X: 137
T: Ross Meor
%%VWML:Wrights-3753-p69-0
F: http://www.vwml.org/record/Wrights/3753/p69
%R: march, reel
B: Daniel Wright "Wright's Compleat Collection of Celebrated Country Dances" 1740 p.69
S: http://library.efdss.org/cgi-bin/dancebooks.cgi
Z: 2014 John Chambers <jc:trillian.mit.edu>
N: Repeats modified to match the "Each strain twice" instruction.
M: C|
L: 1/8
K: G
%-------------------------
|:\
G4 B4 | G2d2 B2AG | F4 A4 | F2c2 A2GF |\
G4 B4 | G2d2 B2AG | B2AG A2F2 | G8 :|\
|:\
B3A GABc | d6 g2 |
d6 g2 | d6 gf |\
g2d2 d2ef | g2d2 d2ef | g2d2 edcB | A6 D2 |\
FGA2 F2D2 | FGA2 F2ED | B2AG A2F2 | G8 :|
%-------------------------
%%center Each strain twice.
%%begintext align
%% The 1st and 2d Men lead thro' the two We. the We.
%% lead thro' the Men, and all turn S. .| the 1st Cu.
%% whole Figure thro'the 2d Cu. and sett and cast
%% off :| cross over round 3d Cu. lead thro' the top
%% and turn your partner .| then lead thro' the 3d
%% Cu. and thro' the 2d Cu. right and left with
%% the 3d Cu :|
%%endtext
%-------------------------
%%sep 2 4 300
T: Black as a Cole
T: Longways for &c.
%R: slip-jig
B: Daniel Wright "Wright's Compleat Collection of Celebrated Country Dances" 1740 p.69
S: http://library.efdss.org/cgi-bin/dancebooks.cgi
Z: 2014 John Chambers <jc:trillian.mit.edu>
N: Repeats modified to match the "Each strain twice" instruction.
M: 9/8
L: 1/8
K: Dmix
%-------------------------
|:\
DEF DEF A,3 | DEF DEF B2E |\
DEF DEF A,2A, | efe e2G F2E :|\
|:\
df/g/a/f/ df/g/a/f/ d2A | df/g/a/f/ df/g/a/f/ g2e |
df/g/a/f/ df/g/a/f/ d2A | efe eEG F2E ||\
afd dBG AFD | afd def g2e |\
afd dBG AFD | efe e2G F2E :|
%-------------------------
%%center Each strain twice.
%%begintext align
%% The 1st Cu. turn sett and cast down .| then turn sett
%% and cast up again :| the 1st Man takes hands with
%% the 3d Cu. the 1st Wo. take hands with the 2d Cu
%% and turn 'em half round, then turn his partner .|
%% the 1st Man turn the 2d Cu.. the 1st Wo. the 3d
%% Cu. half round, and turn partners :|
%%endtext
%-------------------------
%%sep 2 4 300
